X:76
T:91 Psalm Martins Lane. WHG.075
R:hymn
S:W.H.Giles MS,Bampton,Oxfordshire,1839p78
O:England
H:donated by Mrs W.R.Kettlewell to VWML,Apr 1927.
A:Bampton, Oxfordshire
N:Bar 4 G2 is G3 in MS. “Modto.” (presumably
N:Moderato) written at start of stave.
Z:PJHeadford – VMP 2009
M:C
L:1/8
Q:2/4=60
K:G
G2|B2Gd d2Bg|ec BA B2ce|ed Dc cB Gc|cA AG (G2 F)A|
Bd ^ce dg ge|d2^c2 d2||”^Pia”d2|dc cB c2zc|cB BA B2zB|
BG Ge e2d2|dB Be g2e2|”^For”dB AG ge dc|B2A2 “^Finis”G4|]

